Numix-Light/16/status/indicator-keyboard-Sv-5.svg

<?xml version="1.0" encoding="UTF-8" standalone="no"?>
<svg
   xmlns:dc="http://purl.org/dc/elements/1.1/"
   xmlns:cc="http://creativecommons.org/ns#"
   xmlns:rdf="http://www.w3.org/1999/02/22-rdf-syntax-ns#"
   xmlns:svg="http://www.w3.org/2000/svg"
   xmlns="http://www.w3.org/2000/svg"
   xmlns:sodipodi="http://sodipodi.sourceforge.net/DTD/sodipodi-0.dtd"
   xmlns:inkscape="http://www.inkscape.org/namespaces/inkscape"
   viewBox="0 0 16 16"
   id="svg2"
   version="1.1"
   inkscape:version="0.91 r13725"
   sodipodi:docname="indicator-keyboard-Sv-5.svg">
  <metadata
     id="metadata14">
    <rdf:RDF>
      <cc:Work
         rdf:about="">
        <dc:format>image/svg+xml</dc:format>
        <dc:type
           rdf:resource="http://purl.org/dc/dcmitype/StillImage" />
      </cc:Work>
    </rdf:RDF>
  </metadata>
  <defs
     id="defs12" />
  <sodipodi:namedview
     pagecolor="#ffffff"
     bordercolor="#666666"
     borderopacity="1"
     objecttolerance="10"
     gridtolerance="10"
     guidetolerance="10"
     inkscape:pageopacity="0"
     inkscape:pageshadow="2"
     inkscape:window-width="640"
     inkscape:window-height="480"
     id="namedview10"
     showgrid="false"
     inkscape:zoom="14.75"
     inkscape:cx="8"
     inkscape:cy="8"
     inkscape:window-x="65"
     inkscape:window-y="24"
     inkscape:window-maximized="0"
     inkscape:current-layer="svg2" />
  <path
     style="fill:#353535;fill-opacity:1"
     d="M 1.5996094 0 C 0.71320937 2.9605947e-16 0 0.71320937 0 1.5996094 L 0 14.400391 C 2.9605947e-16 15.286791 0.71320937 16 1.5996094 16 L 14.400391 16 C 15.286791 16 16 15.286791 16 14.400391 L 16 1.5996094 C 16 0.71320937 15.286791 0 14.400391 0 L 1.5996094 0 z M 4.4804688 4.7246094 C 4.6484687 4.7246094 4.8126094 4.7357656 4.9746094 4.7597656 C 5.1366094 4.7837656 5.2858281 4.817375 5.4238281 4.859375 C 5.5678281 4.895375 5.6985 4.936375 5.8125 4.984375 C 5.9325 5.032375 6.031375 5.0846719 6.109375 5.1386719 L 5.8925781 5.6503906 C 5.7185781 5.5303906 5.5059062 5.4352813 5.2539062 5.3632812 C 5.0079063 5.2912813 4.741125 5.2558594 4.453125 5.2558594 C 4.255125 5.2558594 4.0722969 5.2763594 3.9042969 5.3183594 C 3.7422969 5.3543594 3.6004688 5.4178125 3.4804688 5.5078125 C 3.3604688 5.5918125 3.2653594 5.6980781 3.1933594 5.8300781 C 3.1273594 5.9620781 3.09375 6.1225938 3.09375 6.3085938 C 3.09375 6.5005938 3.1291719 6.6629219 3.2011719 6.7949219 C 3.2731719 6.9269219 3.3720469 7.0407187 3.4980469 7.1367188 C 3.6300469 7.2327187 3.7830313 7.3184844 3.9570312 7.3964844 C 4.1310313 7.4744844 4.3213906 7.556625 4.5253906 7.640625 C 4.7713906 7.742625 5.0007969 7.8433125 5.2167969 7.9453125 C 5.4387969 8.0473125 5.6309687 8.1686406 5.7929688 8.3066406 C 5.9549688 8.4446406 6.0856406 8.6125469 6.1816406 8.8105469 C 6.2776406 9.0085469 6.3242188 9.2510625 6.3242188 9.5390625 C 6.3242188 10.103063 6.1264687 10.526594 5.7304688 10.808594 C 5.3404687 11.090594 4.8106719 11.230469 4.1386719 11.230469 C 3.8986719 11.230469 3.6784688 11.215547 3.4804688 11.185547 C 3.2824688 11.155547 3.1052188 11.120125 2.9492188 11.078125 C 2.7932187 11.030125 2.6626875 10.981594 2.5546875 10.933594 C 2.4466875 10.885594 2.3607812 10.844594 2.3007812 10.808594 L 2.5 10.277344 C 2.56 10.313344 2.6401875 10.354344 2.7421875 10.402344 C 2.8441875 10.450344 2.9655156 10.498875 3.1035156 10.546875 C 3.2415156 10.588875 3.3963125 10.624297 3.5703125 10.654297 C 3.7443125 10.684297 3.9364844 10.699219 4.1464844 10.699219 C 4.6324844 10.699219 5.01125 10.613453 5.28125 10.439453 C 5.55125 10.259453 5.6855469 9.970219 5.6855469 9.5742188 C 5.6855469 9.3462187 5.6407813 9.1578125 5.5507812 9.0078125 C 5.4667812 8.8518125 5.3529844 8.7230938 5.2089844 8.6210938 C 5.0649844 8.5130937 4.8988906 8.4235625 4.7128906 8.3515625 C 4.5268906 8.2735625 4.3329063 8.1914219 4.1289062 8.1074219 C 3.8709063 8.0054219 3.6395469 7.9009687 3.4355469 7.7929688 C 3.2315469 7.6849688 3.0580625 7.5655937 2.9140625 7.4335938 C 2.7700625 7.2955937 2.6580781 7.1388438 2.5800781 6.9648438 C 2.5080781 6.7908437 2.4726562 6.5875156 2.4726562 6.3535156 C 2.4726562 5.8195156 2.6499063 5.4146719 3.0039062 5.1386719 C 3.3579062 4.8626719 3.8504688 4.7246094 4.4804688 4.7246094 z M 6.7285156 6.4433594 L 7.3496094 6.4433594 C 7.4216094 6.7613594 7.5093281 7.10275 7.6113281 7.46875 C 7.7193281 7.82875 7.833125 8.1888281 7.953125 8.5488281 C 8.079125 8.9028281 8.2078438 9.2479844 8.3398438 9.5839844 C 8.4718438 9.9139846 8.6005625 10.208797 8.7265625 10.466797 C 8.8525625 10.208797 8.9812812 9.9139846 9.1132812 9.5839844 C 9.2452812 9.2479844 9.3721875 8.9028281 9.4921875 8.5488281 C 9.6181875 8.1888281 9.7319844 7.82875 9.8339844 7.46875 C 9.9419844 7.10275 10.031516 6.7613594 10.103516 6.4433594 L 10.689453 6.4433594 C 10.581453 6.8693594 10.460125 7.289125 10.328125 7.703125 C 10.196125 8.117125 10.05625 8.5219688 9.90625 8.9179688 C 9.76225 9.3139687 9.6092656 9.6945467 9.4472656 10.060547 C 9.2912656 10.426547 9.1382812 10.771703 8.9882812 11.095703 L 8.4296875 11.095703 C 8.2736875 10.771703 8.1169375 10.426547 7.9609375 10.060547 C 7.8049375 9.6945467 7.6519531 9.3139687 7.5019531 8.9179688 C 7.3579531 8.5219688 7.2198906 8.117125 7.0878906 7.703125 C 6.9558906 7.289125 6.8365156 6.8693594 6.7285156 6.4433594 z M 11.732422 8.8417969 L 13.558594 8.8417969 L 13.558594 9.1757812 L 12.066406 9.1757812 C 12.062473 9.2498812 12.056595 9.3458906 12.048828 9.4628906 C 12.041028 9.5798906 12.033191 9.6994188 12.025391 9.8242188 C 12.017591 9.9451188 12.007794 10.062681 11.996094 10.175781 C 11.984394 10.288881 11.974597 10.379012 11.966797 10.445312 C 12.267097 10.453112 12.525741 10.490341 12.744141 10.556641 C 12.962541 10.622941 13.142803 10.711119 13.283203 10.824219 C 13.423603 10.937319 13.52745 11.074475 13.59375 11.234375 C 13.66395 11.394275 13.699219 11.572578 13.699219 11.767578 C 13.699219 11.939178 13.669828 12.097894 13.611328 12.246094 C 13.556728 12.394294 13.470516 12.523613 13.353516 12.632812 C 13.236516 12.742012 13.087603 12.828225 12.908203 12.890625 C 12.728803 12.953025 12.517184 12.984375 12.271484 12.984375 C 12.146684 12.984375 12.029122 12.974578 11.919922 12.955078 C 11.814622 12.939478 11.718613 12.919884 11.632812 12.896484 C 11.550913 12.873084 11.480375 12.849572 11.421875 12.826172 C 11.363375 12.802772 11.320269 12.783178 11.292969 12.767578 L 11.392578 12.427734 C 11.415978 12.443334 11.455166 12.462928 11.509766 12.486328 C 11.568266 12.509728 11.634884 12.533241 11.708984 12.556641 C 11.786984 12.576141 11.873197 12.593775 11.966797 12.609375 C 12.064297 12.624975 12.166184 12.632812 12.271484 12.632812 C 12.466484 12.632812 12.627159 12.611259 12.755859 12.568359 C 12.888459 12.521559 12.994266 12.458859 13.072266 12.380859 C 13.150266 12.302859 13.205128 12.212728 13.236328 12.111328 C 13.271428 12.006028 13.289062 11.894337 13.289062 11.773438 C 13.289062 11.617437 13.263591 11.476362 13.212891 11.351562 C 13.162191 11.226762 13.072059 11.120956 12.943359 11.035156 C 12.814659 10.949356 12.642228 10.884697 12.423828 10.841797 C 12.205428 10.794997 11.927197 10.771484 11.591797 10.771484 C 11.615197 10.572584 11.634791 10.392316 11.650391 10.228516 C 11.665991 10.060816 11.679706 9.9001469 11.691406 9.7480469 C 11.703106 9.5920469 11.710944 9.4431281 11.714844 9.2988281 C 11.722644 9.1506281 11.728522 8.9977969 11.732422 8.8417969 z "
     id="path4" />
</svg>

<svg xmlns="http://www.w3.org/2000/svg" viewBox="0 0 16 16">
 <path d="m 1.6 0 c -0.886 0 -1.6 0.713 -1.6 1.6 l 0 12.801 c 0 0.886 0.713 1.6 1.6 1.6 l 12.801 0 c 0.886 0 1.6 -0.713 1.6 -1.6 l 0 -12.801 c 0 -0.886 -0.713 -1.6 -1.6 -1.6 l -12.801 0 z m 2.881 4.725 c 0.168 0 0.332 0.011 0.494 0.035 c 0.162 0.024 0.311 0.058 0.449 0.1 c 0.144 0.036 0.275 0.077 0.389 0.125 c 0.12 0.048 0.219 0.1 0.297 0.154 l -0.217 0.512 c -0.174 -0.12 -0.387 -0.215 -0.639 -0.287 c -0.246 -0.072 -0.513 -0.107 -0.801 -0.107 c -0.198 0 -0.381 0.02 -0.549 0.063 c -0.162 0.036 -0.304 0.099 -0.424 0.189 c -0.12 0.084 -0.215 0.19 -0.287 0.322 c -0.066 0.132 -0.1 0.293 -0.1 0.479 c 0 0.192 0.035 0.354 0.107 0.486 c 0.072 0.132 0.171 0.246 0.297 0.342 c 0.132 0.096 0.285 0.182 0.459 0.26 c 0.174 0.078 0.364 0.16 0.568 0.244 c 0.246 0.102 0.475 0.203 0.691 0.305 c 0.222 0.102 0.414 0.223 0.576 0.361 c 0.162 0.138 0.293 0.306 0.389 0.504 c 0.096 0.198 0.143 0.441 0.143 0.729 c 0 0.564 -0.198 0.988 -0.594 1.27 c -0.39 0.282 -0.92 0.422 -1.592 0.422 c -0.24 0 -0.46 -0.015 -0.658 -0.045 c -0.198 -0.03 -0.375 -0.065 -0.531 -0.107 c -0.156 -0.048 -0.287 -0.097 -0.395 -0.145 c -0.108 -0.048 -0.194 -0.089 -0.254 -0.125 l 0.199 -0.531 c 0.06 0.036 0.14 0.077 0.242 0.125 c 0.102 0.048 0.223 0.097 0.361 0.145 c 0.138 0.042 0.293 0.077 0.467 0.107 c 0.174 0.03 0.366 0.045 0.576 0.045 c 0.486 0 0.865 -0.086 1.135 -0.26 c 0.27 -0.18 0.404 -0.469 0.404 -0.865 c 0 -0.228 -0.045 -0.416 -0.135 -0.566 c -0.084 -0.156 -0.198 -0.285 -0.342 -0.387 c -0.144 -0.108 -0.31 -0.198 -0.496 -0.27 c -0.186 -0.078 -0.38 -0.16 -0.584 -0.244 c -0.258 -0.102 -0.489 -0.206 -0.693 -0.314 c -0.204 -0.108 -0.377 -0.227 -0.521 -0.359 c -0.144 -0.138 -0.256 -0.295 -0.334 -0.469 c -0.072 -0.174 -0.107 -0.377 -0.107 -0.611 c 0 -0.534 0.177 -0.939 0.531 -1.215 c 0.354 -0.276 0.847 -0.414 1.477 -0.414 z m 2.248 1.719 l 0.621 0 c 0.072 0.318 0.16 0.659 0.262 1.025 c 0.108 0.36 0.222 0.72 0.342 1.08 c 0.126 0.354 0.255 0.699 0.387 1.035 c 0.132 0.33 0.261 0.625 0.387 0.883 c 0.126 -0.258 0.255 -0.553 0.387 -0.883 c 0.132 -0.336 0.259 -0.681 0.379 -1.035 c 0.126 -0.36 0.24 -0.72 0.342 -1.08 c 0.108 -0.366 0.198 -0.707 0.27 -1.025 l 0.586 0 c -0.108 0.426 -0.229 0.846 -0.361 1.26 c -0.132 0.414 -0.272 0.819 -0.422 1.215 c -0.144 0.396 -0.297 0.777 -0.459 1.143 c -0.156 0.366 -0.309 0.711 -0.459 1.035 l -0.559 0 c -0.156 -0.324 -0.313 -0.669 -0.469 -1.035 c -0.156 -0.366 -0.309 -0.747 -0.459 -1.143 c -0.144 -0.396 -0.282 -0.801 -0.414 -1.215 c -0.132 -0.414 -0.251 -0.834 -0.359 -1.26 z m 5 2.398 l 1.826 0 l 0 0.334 l -1.492 0 c -0.004 0.074 -0.01 0.17 -0.018 0.287 c -0.008 0.117 -0.016 0.237 -0.023 0.361 c -0.008 0.121 -0.018 0.238 -0.029 0.352 c -0.012 0.113 -0.021 0.203 -0.029 0.27 c 0.3 0.008 0.559 0.045 0.777 0.111 c 0.218 0.066 0.399 0.154 0.539 0.268 c 0.14 0.113 0.244 0.25 0.311 0.41 c 0.07 0.16 0.105 0.338 0.105 0.533 c 0 0.172 -0.029 0.33 -0.088 0.479 c -0.055 0.148 -0.141 0.278 -0.258 0.387 c -0.117 0.109 -0.266 0.195 -0.445 0.258 c -0.179 0.062 -0.391 0.094 -0.637 0.094 c -0.125 0 -0.242 -0.01 -0.352 -0.029 c -0.105 -0.016 -0.201 -0.035 -0.287 -0.059 c -0.082 -0.023 -0.152 -0.047 -0.211 -0.07 c -0.059 -0.023 -0.102 -0.043 -0.129 -0.059 l 0.1 -0.34 c 0.023 0.016 0.063 0.035 0.117 0.059 c 0.058 0.023 0.125 0.047 0.199 0.07 c 0.078 0.019 0.164 0.037 0.258 0.053 c 0.098 0.016 0.199 0.023 0.305 0.023 c 0.195 0 0.356 -0.022 0.484 -0.064 c 0.133 -0.047 0.238 -0.109 0.316 -0.188 c 0.078 -0.078 0.133 -0.168 0.164 -0.27 c 0.035 -0.105 0.053 -0.217 0.053 -0.338 c 0 -0.156 -0.025 -0.297 -0.076 -0.422 c -0.051 -0.125 -0.141 -0.231 -0.27 -0.316 c -0.129 -0.086 -0.301 -0.15 -0.52 -0.193 c -0.218 -0.047 -0.497 -0.07 -0.832 -0.07 c 0.023 -0.199 0.043 -0.379 0.059 -0.543 c 0.016 -0.168 0.029 -0.328 0.041 -0.48 c 0.012 -0.156 0.02 -0.305 0.023 -0.449 c 0.008 -0.148 0.014 -0.301 0.018 -0.457 z" style="fill:#353535;fill-opacity:1"/>
</svg>
